build/svg/cmd/sc_showallnotes.svg

<?xml version="1.0" encoding="UTF-8" standalone="no"?>
<svg
   xmlns:dc="http://purl.org/dc/elements/1.1/"
   xmlns:cc="http://creativecommons.org/ns#"
   xmlns:rdf="http://www.w3.org/1999/02/22-rdf-syntax-ns#"
   xmlns:svg="http://www.w3.org/2000/svg"
   xmlns="http://www.w3.org/2000/svg"
   xmlns:sodipodi="http://sodipodi.sourceforge.net/DTD/sodipodi-0.dtd"
   xmlns:inkscape="http://www.inkscape.org/namespaces/inkscape"
   viewBox="0 0 16 16"
   version="1.1"
   id="svg4"
   sodipodi:docname="sc_showallnotes.svg"
   inkscape:version="0.92.5 (2060ec1f9f, 2020-04-08)"
   inkscape:export-filename="/home/jupiter007/Libreoffice yaru theme fullcolor/build/cmd/sc_showallnotes.png"
   inkscape:export-xdpi="95"
   inkscape:export-ydpi="95">
  <metadata
     id="metadata10">
    <rdf:RDF>
      <cc:Work
         rdf:about="">
        <dc:format>image/svg+xml</dc:format>
        <dc:type
           rdf:resource="http://purl.org/dc/dcmitype/StillImage" />
      </cc:Work>
    </rdf:RDF>
  </metadata>
  <defs
     id="defs8" />
  <sodipodi:namedview
     pagecolor="#ffffff"
     bordercolor="#666666"
     borderopacity="1"
     objecttolerance="10"
     gridtolerance="10"
     guidetolerance="10"
     inkscape:pageopacity="0"
     inkscape:pageshadow="2"
     inkscape:window-width="1920"
     inkscape:window-height="1011"
     id="namedview6"
     showgrid="true"
     inkscape:zoom="39.8125"
     inkscape:cx="11.789318"
     inkscape:cy="8.9235456"
     inkscape:window-x="1920"
     inkscape:window-y="32"
     inkscape:window-maximized="1"
     inkscape:current-layer="svg4">
    <inkscape:grid
       type="xygrid"
       id="grid821" />
  </sodipodi:namedview>
  <path
     id="path20"
     style="opacity:0.6;fill:#000000;fill-opacity:1;fill-rule:nonzero;stroke:#000000;stroke-width:2;stroke-linecap:butt;stroke-linejoin:round;stroke-miterlimit:4;stroke-dasharray:none;stroke-dashoffset:0;stroke-opacity:1"
     d="m 5,1.9952424 c -2,0 -3,0 -3,1.9999998 v 3.0000002 c 0,1.999999 1,1.999999 3,1.999999 h 2 2 c 2,0 3,0 3,-1.999999 v -1 -2.0000002 C 12,1.9952424 11,1.9952424 9,1.9952424 Z"
     inkscape:connector-curvature="0"
     sodipodi:nodetypes="sssccsscsss" />
  <path
     sodipodi:nodetypes="sssccsscsss"
     inkscape:connector-curvature="0"
     d="m 5,1.9952424 c -2,0 -3,0 -3,1.9999998 v 3.0000002 c 0,1.999999 1,1.999999 3,1.999999 h 2 2 c 2,0 3,0 3,-1.999999 v -1 -2.0000002 C 12,1.9952424 11,1.9952424 9,1.9952424 Z"
     style="opacity:1;fill:#fa9381;fill-opacity:1;fill-rule:nonzero;stroke:none;stroke-width:0.00106905;stroke-linecap:butt;stroke-linejoin:round;stroke-miterlimit:4;stroke-dasharray:none;stroke-dashoffset:0;stroke-opacity:1"
     id="path22" />
  <path
     sodipodi:nodetypes="sssssss"
     inkscape:connector-curvature="0"
     id="path24"
     d="M 4.333333,3.9928127 H 9.666666 C 9.851334,3.9928127 10,4.2158128 10,4.4928128 10,4.7698129 9.851334,4.9928129 9.666666,4.9928129 H 4.333333 C 4.148667,4.9928129 4,4.7698129 4,4.4928128 4,4.2158128 4.148667,3.9928127 4.333333,3.9928127 Z"
     style="opacity:1;fill:#ffffff;fill-opacity:1;fill-rule:nonzero;stroke:none;stroke-width:0.00097591;stroke-linecap:butt;stroke-linejoin:round;stroke-miterlimit:4;stroke-dasharray:none;stroke-dashoffset:0;stroke-opacity:1" />
  <path
     style="opacity:1;fill:#ffffff;fill-opacity:1;fill-rule:nonzero;stroke:none;stroke-width:0.00097591;stroke-linecap:butt;stroke-linejoin:round;stroke-miterlimit:4;stroke-dasharray:none;stroke-dashoffset:0;stroke-opacity:1"
     d="m 4.333333,5.9928134 h 5.333333 c 0.184668,0 0.333334,0.223 0.333334,0.5 0,0.276999 -0.148666,0.5 -0.333334,0.5 H 4.333333 C 4.148667,6.9928134 4,6.7698124 4,6.4928134 c 0,-0.277 0.148667,-0.5 0.333333,-0.5 z"
     id="path26"
     inkscape:connector-curvature="0"
     sodipodi:nodetypes="sssssss" />
  <path
     sodipodi:nodetypes="sssccsscsss"
     inkscape:connector-curvature="0"
     d="M 7,7 C 5,7 4,7 4,8.9999998 V 12 c 0,1.999999 1,1.999999 3,1.999999 h 2 2 c 2,0 3,0 3,-1.999999 V 11 8.9999998 C 14,7 13,7 11,7 Z"
     style="opacity:0.6;fill:#000000;fill-opacity:1;fill-rule:nonzero;stroke:#000000;stroke-width:2;stroke-linecap:butt;stroke-linejoin:round;stroke-miterlimit:4;stroke-dasharray:none;stroke-dashoffset:0;stroke-opacity:1"
     id="path816" />
  <path
     id="rect823"
     style="opacity:1;fill:#fa9381;fill-opacity:1;fill-rule:nonzero;stroke:none;stroke-width:0.00106905;stroke-linecap:butt;stroke-linejoin:round;stroke-miterlimit:4;stroke-dasharray:none;stroke-dashoffset:0;stroke-opacity:1"
     d="M 7,7 C 5,7 4,7 4,8.9999998 V 12 c 0,1.999999 1,1.999999 3,1.999999 h 2 2 c 2,0 3,0 3,-1.999999 V 11 8.9999998 C 14,7 13,7 11,7 Z"
     inkscape:connector-curvature="0"
     sodipodi:nodetypes="sssccsscsss" />
  <path
     style="opacity:1;fill:#ffffff;fill-opacity:1;fill-rule:nonzero;stroke:none;stroke-width:0.00097591;stroke-linecap:butt;stroke-linejoin:round;stroke-miterlimit:4;stroke-dasharray:none;stroke-dashoffset:0;stroke-opacity:1"
     d="m 6.333333,8.9975703 h 5.333333 C 11.851334,8.9975703 12,9.2205704 12,9.4975704 12,9.7745705 11.851334,9.9975705 11.666666,9.9975705 H 6.333333 C 6.148667,9.9975705 6,9.7745705 6,9.4975704 6,9.2205704 6.148667,8.9975703 6.333333,8.9975703 Z"
     id="path822"
     inkscape:connector-curvature="0"
     sodipodi:nodetypes="sssssss" />
  <path
     sodipodi:nodetypes="sssssss"
     inkscape:connector-curvature="0"
     id="path828"
     d="m 6.333333,10.997571 h 5.333333 c 0.184668,0 0.333334,0.223 0.333334,0.5 0,0.276999 -0.148666,0.5 -0.333334,0.5 H 6.333333 C 6.148667,11.997571 6,11.77457 6,11.497571 c 0,-0.277 0.148667,-0.5 0.333333,-0.5 z"
     style="opacity:1;fill:#ffffff;fill-opacity:1;fill-rule:nonzero;stroke:none;stroke-width:0.00097591;stroke-linecap:butt;stroke-linejoin:round;stroke-miterlimit:4;stroke-dasharray:none;stroke-dashoffset:0;stroke-opacity:1" />
</svg>

<svg xmlns="http://www.w3.org/2000/svg" viewBox="0 0 16 16"><path d="M5 1.995c-2 0-3 0-3 2v3c0 2 1 2 3 2h4c2 0 3 0 3-2v-3c0-2-1-2-3-2z" opacity=".6" stroke="#000" stroke-width="2" stroke-linejoin="round"/><path d="M5 1.995c-2 0-3 0-3 2v3c0 2 1 2 3 2h4c2 0 3 0 3-2v-3c0-2-1-2-3-2z" fill="#fa9381"/><path d="M4.333 3.993h5.334c.184 0 .333.223.333.5s-.149.5-.333.5H4.333c-.184 0-.333-.223-.333-.5s.149-.5.333-.5zM4.333 5.993h5.334c.184 0 .333.223.333.5s-.149.5-.333.5H4.333c-.184 0-.333-.223-.333-.5s.149-.5.333-.5z" fill="#fff"/><path d="M7 7C5 7 4 7 4 9v3c0 2 1 2 3 2h4c2 0 3 0 3-2V9c0-2-1-2-3-2z" opacity=".6" stroke="#000" stroke-width="2" stroke-linejoin="round"/><path d="M7 7C5 7 4 7 4 9v3c0 2 1 2 3 2h4c2 0 3 0 3-2V9c0-2-1-2-3-2z" fill="#fa9381"/><path d="M6.333 8.998h5.334c.184 0 .333.223.333.5s-.149.5-.333.5H6.333c-.184 0-.333-.223-.333-.5s.149-.5.333-.5zM6.333 10.998h5.334c.184 0 .333.223.333.5s-.149.5-.333.5H6.333c-.184 0-.333-.223-.333-.5s.149-.5.333-.5z" fill="#fff"/></svg>
